icons/svg/owl.svg

﻿<?xml version="1.0" encoding="utf-8"?>
<!DOCTYPE svg PUBLIC "-//W3C//DTD SVG 1.1//EN" "http://www.w3.org/Graphics/SVG/1.1/DTD/svg11.dtd">
<svg xmlns="http://www.w3.org/2000/svg" xmlns:xlink="http://www.w3.org/1999/xlink" version="1.1" baseProfile="full" width="24" height="24" viewBox="0 0 24.00 24.00" enable-background="new 0 0 24.00 24.00" xml:space="preserve">
	<path fill="#0D0E0E" fill-opacity="1" stroke-linejoin="round" d="M 12,16.0058C 12.555,16.8428 13.3111,17.5272 14.1992,17.9961L 12,20.1953L 9.80078,17.9961C 10.6889,17.5272 11.445,16.8428 12,16.0058 Z M 17,11.1954C 15.8954,11.1954 15,12.0908 15,13.1954C 15,14.2999 15.8954,15.1953 17,15.1953C 18.1046,15.1953 19,14.2999 19,13.1954C 19,12.0908 18.1046,11.1954 17,11.1954 Z M 7,11.1954C 5.89543,11.1954 5,12.0908 5,13.1954C 5,14.2999 5.89543,15.1953 7,15.1953C 8.10457,15.1953 9,14.2999 9,13.1954C 9,12.0908 8.10457,11.1954 7,11.1954 Z M 17,8.6953C 19.2091,8.6953 21,10.4862 21,12.6954C 21,14.9045 19.2091,16.6954 17,16.6954C 14.7909,16.6954 13,14.9045 13,12.6954C 13,10.4862 14.7909,8.6953 17,8.6953 Z M 7,8.6953C 9.20914,8.6953 11,10.4862 11,12.6954C 11,14.9045 9.20914,16.6954 7,16.6954C 4.79086,16.6954 3,14.9045 3,12.6954C 3,10.4862 4.79086,8.6953 7,8.6953 Z M 2.24414,0.976553C 4,4.6953 2.72855,7.45935 1.55469,10.1953C 1.19204,10.979 1.00284,11.8317 1,12.6954C 1,16.0091 3.68629,18.6954 7,18.6954C 7.21092,18.6941 7.42127,18.6776 7.63086,18.6542L 10.5859,21.6093L 12,23.0234L 13.4141,21.6093L 16.3691,18.6542C 16.5787,18.6776 16.7891,18.6941 17,18.6954C 20.3137,18.6954 23.0022,16.0091 23,12.6954C 22.9994,11.8317 22.808,10.979 22.4453,10.1953C 21.2715,7.45934 20,4.6953 21.7559,0.976553C 19.1179,3.05545 15.3586,4.68888 12,4.6953C 8.64137,4.68888 4.88206,3.05545 2.24414,0.976553 Z "/>
</svg>

<svg xmlns="http://www.w3.org/2000/svg" version="1.1" baseProfile="full" width="24" height="24" viewBox="0 0 24.00 24.00" xml:space="preserve"><path fill="#0D0E0E" fill-opacity="1" stroke-linejoin="round" d="M12 16.006c.555.837 1.31 1.52 2.2 1.99l-2.2 2.2-2.2-2.2c.89-.47 1.645-1.153 2.2-1.99zm5-4.81c-1.105 0-2 .895-2 2 0 1.104.895 2 2 2s2-.896 2-2c0-1.105-.895-2-2-2zm-10 0c-1.105 0-2 .895-2 2 0 1.104.895 2 2 2s2-.896 2-2c0-1.105-.895-2-2-2zm10-2.5c2.21 0 4 1.79 4 4s-1.79 4-4 4-4-1.792-4-4c0-2.21 1.79-4 4-4zm-10 0c2.21 0 4 1.79 4 4s-1.79 4-4 4-4-1.792-4-4c0-2.21 1.79-4 4-4zM2.244.975c1.756 3.72.485 6.483-.69 9.22-.362.783-.55 1.636-.554 2.5 0 3.313 2.686 6 6 6 .21-.002.42-.018.63-.042l2.956 2.955L12 23.022l1.414-1.414 2.955-2.956c.21.024.42.04.63.04 3.314 0 6.002-2.685 6-6 0-.862-.192-1.715-.555-2.5C21.27 7.46 20 4.695 21.755.978 19.12 3.055 15.36 4.69 12 4.695 8.64 4.69 4.882 3.055 2.244.977z"/></svg>
